X: 5361
T: Buckland Downs
R: jig
M: 6/8
K: Gmajor
|:G3 AGA|G3 D2D|E2A FEF|G2d BAB|
G3 AGA|G3 D2D|E z A FEF|G3 G3:|
|:G2 G Ggf|f2e edc|B2 A Ace|e2d dcB|
AGG GBd|dcc BAG|FAB cAF|G3 G,3:|

